button.svg

<svg width="339" height="134" viewBox="0 0 339 134" fill="none" xmlns="http://www.w3.org/2000/svg">
<path d="M307.226 119.763V128.931C307.226 131.279 305.32 133.221 302.916 133.221H174.031H34.6205C32.3976 133.221 30.5829 131.46 30.5376 129.202L30.4015 118.905C30.3561 116.557 28.36 114.615 26.0009 114.615H17.9712C15.6575 114.615 13.7521 112.719 13.7521 110.415V90.1839C13.7521 88.6485 13.1169 87.2034 11.9828 86.1195L4.13447 78.8488C-1.17337 71.1717 -1.35483 61.0559 3.49935 51.7079C4.72423 49.3596 7.53692 46.2887 9.75986 44.8887L10.9394 44.121C12.6633 43.0372 13.7521 41.0953 13.7521 39.0632V21.6315C13.7521 19.4187 15.5667 17.5671 17.835 17.5671H26.8629C29.358 17.5671 31.3995 15.5349 31.3995 13.0511V3.52245C31.3995 1.58058 32.9873 0 34.9381 0H168.36H301.192C303.415 0 305.229 1.71607 305.366 3.88374L305.955 13.8641C306.137 16.5285 308.314 18.6058 310.991 18.651L318.885 18.7413C321.062 18.7865 322.832 20.5476 322.832 22.7153V35.0891C322.832 39.2438 324.737 43.2178 328.049 45.7919L330.725 47.8693C342.566 57.2173 341.522 75.4167 328.729 83.4099L326.96 84.4938C324.419 86.0744 322.877 88.8291 322.877 91.8548V109.151C322.877 111.319 321.153 113.08 319.021 113.17L310.447 113.531C307.815 113.622 307.226 117.235 307.226 119.763Z" fill="#0B2569"/>
<path d="M303.211 118.201V126.931C303.211 129.183 301.353 131 299.05 131H173.949H38.6691C36.4878 131 34.7509 129.301 34.6701 127.168L34.5489 117.372C34.5085 115.12 32.5696 113.263 30.2671 113.263H22.471C20.209 113.263 18.3508 111.486 18.3508 109.234V89.9571C18.3508 88.4955 17.7449 87.1129 16.6543 86.0859L9.01976 79.1334C3.8493 71.8255 3.68772 62.187 8.41384 53.2594C9.58527 51.0473 12.3321 48.0846 14.5134 46.7415L15.6848 46.0305C17.3814 44.9639 18.3912 43.1468 18.3912 41.2112V24.5807C18.3912 22.4476 20.1685 20.7095 22.3498 20.7095H31.1154C33.5391 20.7095 35.5184 18.7739 35.5184 16.4037V7.35766C35.5184 5.50105 37.0533 4 38.9519 4H168.415H297.313C299.454 4 301.232 5.61955 301.353 7.71317L301.918 17.2332C302.08 19.7614 304.18 21.7366 306.806 21.7761L314.481 21.8946C316.581 21.9341 318.318 23.5931 318.318 25.6867V37.498C318.318 41.4877 320.176 45.2404 323.368 47.7291L325.953 49.7437C337.465 58.6712 336.455 76.0127 324.014 83.6367L322.317 84.6638C319.853 86.1649 318.359 88.8115 318.359 91.6556V108.128C318.359 110.182 316.703 111.881 314.602 111.96L306.281 112.315C303.776 112.355 303.211 115.792 303.211 118.201Z" fill="#E9CE94"/>
<path d="M294.319 111.686V119.393C294.319 121.367 292.599 123 290.428 123H174.09H48.2504C46.2438 123 44.6058 121.519 44.5649 119.621L44.442 110.965C44.4011 108.991 42.5993 107.358 40.4699 107.358H33.2217C31.1333 107.358 29.4134 105.763 29.4134 103.827V86.8183C29.4134 85.5275 28.8401 84.3126 27.8163 83.4014L20.732 77.2888C15.9409 70.8346 15.7771 62.3302 20.1587 54.4712C21.2644 52.497 23.8032 49.9153 25.8098 48.7383L26.8745 48.0929C28.4306 47.1817 29.4134 45.5492 29.4134 43.8407V29.1858C29.4134 27.3255 31.0514 25.7688 33.0989 25.7688H41.2479C43.5002 25.7688 45.3429 24.0603 45.3429 21.9722V13.9614C45.3429 12.3288 46.7762 11 48.537 11H168.971H288.872C290.879 11 292.517 12.4427 292.64 14.2651L293.172 22.6556C293.336 24.8956 295.301 26.6421 297.718 26.68L304.843 26.756C306.808 26.7939 308.405 28.2746 308.405 30.0969V40.4997C308.405 43.9926 310.125 47.3336 313.115 49.4976L315.531 51.2441C326.219 59.1031 325.277 74.4034 313.729 81.1234L312.132 82.0346C309.839 83.3634 308.446 85.6794 308.446 88.2231V102.764C308.446 104.586 306.89 106.067 304.966 106.143L297.226 106.447C294.851 106.523 294.319 109.56 294.319 111.686Z" fill="#0B2569"/>
</svg>

<?xml version="1.0" encoding="UTF-8"?>
<svg id="Layer_2" data-name="Layer 2" xmlns="http://www.w3.org/2000/svg" viewBox="0 0 339 133.22">
  <defs>
    <style>
      .cls-1 {
        fill: #2b2c20;
      }

      .cls-2 {
        fill: #2a463d;
      }

      .cls-3 {
        fill: #a2d4bc;
      }
    </style>
  </defs>
  <g id="Layer_1-2" data-name="Layer 1">
    <path class="cls-1" d="M307.23,119.76v9.17c0,2.35-1.91,4.29-4.31,4.29H34.62c-2.22,0-4.04-1.76-4.08-4.02l-.14-10.3c-.05-2.35-2.04-4.29-4.4-4.29h-8.03c-2.31,0-4.22-1.9-4.22-4.2v-20.23c0-1.54-.64-2.98-1.77-4.06l-7.85-7.27c-5.31-7.68-5.49-17.79-.64-27.14,1.22-2.35,4.04-5.42,6.26-6.82l1.18-.77c1.72-1.08,2.81-3.03,2.81-5.06v-17.43c0-2.21,1.81-4.06,4.08-4.06h9.03c2.5,0,4.54-2.03,4.54-4.52V3.52c0-1.94,1.59-3.52,3.54-3.52h266.25c2.22,0,4.04,1.72,4.17,3.88l.59,9.98c.18,2.66,2.36,4.74,5.04,4.79l7.89.09c2.18.05,3.95,1.81,3.95,3.97v12.37c0,4.15,1.9,8.13,5.22,10.7l2.68,2.08c11.84,9.35,10.8,27.55-2,35.54l-1.77,1.08c-2.54,1.58-4.08,4.34-4.08,7.36v17.3c0,2.17-1.72,3.93-3.86,4.02l-8.57.36c-2.63.09-3.22,3.7-3.22,6.23Z"/>
    <path class="cls-3" d="M303.21,118.2v8.73c0,2.25-1.86,4.07-4.16,4.07H38.67c-2.18,0-3.92-1.7-4-3.83l-.12-9.8c-.04-2.25-1.98-4.11-4.28-4.11h-7.8c-2.26,0-4.12-1.78-4.12-4.03v-19.28c0-1.46-.61-2.84-1.7-3.87l-7.63-6.95c-5.17-7.31-5.33-16.95-.61-25.87,1.17-2.21,3.92-5.17,6.1-6.52l1.17-.71c1.7-1.07,2.71-2.88,2.71-4.82v-16.63c0-2.13,1.78-3.87,3.96-3.87h8.77c2.42,0,4.4-1.94,4.4-4.31V7.36c0-1.86,1.53-3.36,3.43-3.36h258.36c2.14,0,3.92,1.62,4.04,3.71l.57,9.52c.16,2.53,2.26,4.5,4.89,4.54l7.67.12c2.1.04,3.84,1.7,3.84,3.79v11.81c0,3.99,1.86,7.74,5.05,10.23l2.58,2.01c11.51,8.93,10.5,26.27-1.94,33.89l-1.7,1.03c-2.46,1.5-3.96,4.15-3.96,6.99v16.47c0,2.05-1.66,3.75-3.76,3.83l-8.32.36c-2.51.04-3.07,3.48-3.07,5.89Z"/>
    <path class="cls-2" d="M294.32,111.69v7.71c0,1.97-1.72,3.61-3.89,3.61H48.25c-2.01,0-3.64-1.48-3.69-3.38l-.12-8.66c-.04-1.97-1.84-3.61-3.97-3.61h-7.25c-2.09,0-3.81-1.6-3.81-3.53v-17.01c0-1.29-.57-2.51-1.6-3.42l-7.08-6.11c-4.79-6.45-4.95-14.96-.57-22.82,1.11-1.97,3.64-4.56,5.65-5.73l1.06-.65c1.56-.91,2.54-2.54,2.54-4.25v-14.65c0-1.86,1.64-3.42,3.69-3.42h8.15c2.25,0,4.1-1.71,4.1-3.8v-8.01c0-1.63,1.43-2.96,3.19-2.96h240.34c2.01,0,3.64,1.44,3.77,3.27l.53,8.39c.16,2.24,2.13,3.99,4.55,4.02l7.12.08c1.97.04,3.56,1.52,3.56,3.34v10.4c0,3.49,1.72,6.83,4.71,9l2.42,1.75c10.69,7.86,9.75,23.16-1.8,29.88l-1.6.91c-2.29,1.33-3.69,3.64-3.69,6.19v14.54c0,1.82-1.56,3.3-3.48,3.38l-7.74.3c-2.38.08-2.91,3.11-2.91,5.24Z"/>
  </g>
</svg>
